<?xml version="1.0" encoding="UTF-8"?>
<map version="1.10" tiledversion="1.10.2" orientation="orthogonal" renderorder="right-down" width="32" height="24" tilewidth="16" tileheight="16" infinite="0" nextlayerid="2" nextobjectid="1">
 <tileset firstgid="1" name="tileset" tilewidth="16" tileheight="16" tilecount="8" columns="8">
  <image source="tileset.png" width="128" height="16"/>
 </tileset>
 <layer id="1" name="Main" width="32" height="24">
  <data encoding="csv">
4,4,4,4,4,4,4,4,4,4,4,4,4,4,4,4,4,4,4,4,4,4,4,4,4,4,4,4,4,4,4,4,
4,3,3,3,3,3,2,3,3,3,3,5,3,2,3,3,3,3,3,3,2,3,5,3,3,3,6,2,3,3,3,4,
4,3,3,3,3,2,3,3,3,3,3,5,2,6,3,3,3,3,3,2,3,3,5,3,3,3,2,3,3,3,3,4,
4,3,3,3,2,3,3,3,3,3,3,2,3,6,3,3,3,3,2,3,3,3,5,3,3,2,6,3,3,3,3,4,
4,3,3,2,3,3,3,3,3,3,2,5,3,6,3,3,3,2,3,3,3,3,5,3,2,3,6,3,3,3,3,4,
4,3,2,3,3,3,3,3,3,2,3,5,3,6,3,3,2,3,7,3,3,3,5,2,3,3,6,7,3,3,2,4,
4,2,3,3,3,3,3,3,2,7,3,5,3,6,3,2,3,3,7,3,3,3,2,3,3,3,6,7,3,2,3,4,
4,3,3,3,3,3,3,2,3,7,3,5,3,6,2,3,3,3,7,3,3,2,5,3,3,3,6,7,2,3,3,4,
4,3,3,3,3,3,2,3,3,7,3,5,3,2,3,3,3,3,7,3,2,3,5,3,3,3,6,2,3,3,3,4,
4,3,3,3,3,2,3,3,3,7,3,5,2,6,3,3,3,3,7,2,3,3,5,3,3,3,2,7,3,3,3,4,
4,3,3,3,2,3,3,3,3,7,3,2,3,6,3,3,3,3,2,3,3,3,5,3,3,2,6,7,3,3,3,4,
4,5,5,2,5,5,5,5,5,7,2,5,5,5,5,5,5,2,7,5,5,5,5,5,2,5,5,7,5,5,5,4,
4,3,2,3,3,3,3,3,3,2,3,5,3,6,3,3,2,3,7,3,3,3,5,2,3,3,6,7,3,3,2,4,
4,2,6,6,6,6,6,6,2,7,6,5,6,6,6,2,6,6,7,6,6,6,2,6,6,6,6,7,6,2,6,4,
4,3,3,3,3,3,3,2,3,7,3,5,3,6,2,3,3,3,7,3,3,2,5,3,3,3,6,7,2,3,3,4,
4,3,3,3,3,3,2,3,3,7,3,5,3,2,3,3,3,3,7,3,2,3,5,3,3,3,6,2,3,3,3,4,
4,3,3,3,3,2,3,3,3,7,3,5,2,6,3,3,3,3,7,2,3,3,5,3,3,3,2,7,3,3,3,4,
4,3,3,3,2,3,3,3,3,7,3,2,3,6,3,3,3,3,2,3,3,3,5,3,3,2,6,7,3,3,3,4,
4,3,3,2,3,3,3,3,3,7,2,5,3,6,3,3,3,2,7,3,3,3,5,3,2,3,6,7,3,3,3,4,
4,3,2,3,3,3,3,3,3,2,3,5,3,6,3,3,2,3,7,3,3,3,5,2,3,3,6,7,3,3,2,4,
4,2,1,1,1,1,1,1,2,1,1,1,1,1,1,2,1,1,1,1,1,1,2,1,1,1,1,1,1,2,1,4,
4,1,1,1,1,1,1,2,1,1,1,1,1,1,2,1,1,1,1,1,1,2,1,1,1,1,1,1,2,1,1,4,
4,1,1,1,1,1,2,1,1,1,1,1,1,2,1,1,1,1,1,1,2,1,1,1,1,1,1,2,1,1,1,4,
4,4,4,4,4,4,4,4,4,4,4,4,4,4,4,4,4,4,4,4,4,4,4,4,4,4,4,4,4,4,4,4
</data>
 </layer>
</map>
